X: 4
T: The Golden Eagle
R: hornpipe
M: 4/4
L: 1/8
K: Gmin
(3EDC|B,2,B,D FB,DF|FB,DF BdcB|AGF=E _ECA,G,|B,DCB, A,G, (3EDC|
B,2,B,D FB,DF|FB,DF BdcB|AGF=E _ECA,G,|(3B,B,B, B,A, B,2:|
|:(3ddd|dD^FA dcBA|G^FGA BAB=B|cC=EG cBAG|G=FF=E F2cd|
ecAF =EFGA|BABc dBcB|AGF=E _ECA,G,|(3B,B,B, B,A, B,2:||


Tune 974	Setting 14173

